!!!OTL: Brautwerbung
!!!ARE: Europa, Mitteleuropa, Deutschland
!!!SCT: A0233
!!!YEM: Copyright 1995, estate of Helmut Schaffrath.
**kern
*ICvox
*Ivox
*M4/4
*k[]
*C:
{4cc
=1
4cc
4b
4a
4g
=2
4cc
4cc
4g}
{4g
=3
4a
4a
4g
4g
=4
4a
4a
2g}
=5
{4f
4f
4g
4f
=6
4e
4d
4c}
{4cc
=7
4cc
4cc
4g
4g
=8
4a
4a
4g}
{4g
=9
4cc
4cc
4g
4g
=10
4a
4a
2g}
=11
{4f
4f
4g
4f
=12
4e
4d
4c}
{4cc
=13
4cc
4cc
2b
=14
4a
4a
2g}
=15
{4a
4a
4g
4g
=16
4f
4f
4g
4f
=17
4e
4d
2c}
=18
{4cc
4b
4a
4g
=19
2cc
4g}
{4g
=20
4a
4a
4g
4g
=21
4a
4a
4g
4g}
=22
{4a
4a
4d
4d
=23
2.e}
==
!!!AGN: Romanze, Ballade, Lied
!! O. Siegf. Harnisch, Newe lustige Teutsche Liedlein. Helmstedt
!!    1591 No. 12. Die Melodie hat Boehme vereinfacht.
!!!ONB: ESAC (Essen Associative Code) Database: ALTDEU
!!!AMT: simple quadruple
!!!AIN: vox
!!!EED: Helmut Schaffrath
!!!EEV: 1.0
*-
